src/pages/screens/Techs/images/backend/Redis.svg

<svg width="36" height="32" viewBox="0 0 36 32" fill="none" xmlns="http://www.w3.org/2000/svg">
<g clip-path="url(#clip0_2_474)">
<path d="M34.5895 24.5735C32.6683 25.6093 22.716 29.8419 20.5972 30.9844C18.4784 32.1271 17.3014 32.1161 15.6275 31.2884C13.9538 30.4608 3.36277 26.0358 1.45491 25.0925C0.501469 24.6212 0 24.2233 0 23.8474V20.0836C0 20.0836 13.7883 16.9789 16.0142 16.1529C18.24 15.3268 19.0124 15.297 20.9066 16.0147C22.8011 16.7327 34.1279 18.8464 36 19.5556L35.9992 23.2662C35.9994 23.6383 35.5674 24.0464 34.5895 24.5735Z" fill="#912626"/>
<path d="M34.5888 20.832C32.6677 21.8673 22.7157 26.1 20.5969 27.2424C18.4782 28.3853 17.3012 28.3741 15.6275 27.5464C13.9536 26.7194 3.36302 22.2936 1.4553 21.3509C-0.452422 20.4077 -0.49236 19.7585 1.38161 18.9995C3.25558 18.2402 13.7881 13.9661 16.0143 13.14C18.2402 12.3143 19.0123 12.2842 20.9065 13.0021C22.8009 13.7198 32.6936 17.7927 34.5655 18.5018C36.438 19.2117 36.5099 19.7963 34.5888 20.832Z" fill="#C6302B"/>
<path d="M34.5895 18.4836C32.6683 19.5195 22.716 23.752 20.5972 24.8949C18.4784 26.0372 17.3014 26.0261 15.6275 25.1985C13.9537 24.3713 3.36277 19.9458 1.45491 19.0026C0.501469 18.5313 0 18.1339 0 17.7579V13.9937C0 13.9937 13.7883 10.8891 16.0142 10.0631C18.24 9.23705 19.0124 9.20708 20.9066 9.9249C22.8012 10.6427 34.128 12.756 36 13.4654L35.9992 17.1764C35.9994 17.5483 35.5674 17.9565 34.5895 18.4836Z" fill="#912626"/>
<path d="M34.5888 14.742C32.6677 15.7777 22.7157 20.0101 20.5969 21.1529C18.4782 22.2953 17.3012 22.2841 15.6275 21.4565C13.9536 20.6295 3.36302 16.2039 1.4553 15.261C-0.452422 14.318 -0.49236 13.6687 1.38161 12.9095C3.25558 12.1506 13.7882 7.87615 16.0143 7.05026C18.2402 6.22437 19.0123 6.1944 20.9065 6.91222C22.8009 7.62989 32.6936 11.7025 34.5655 12.4119C36.438 13.1217 36.5099 13.7064 34.5888 14.742Z" fill="#C6302B"/>
<path d="M34.5895 12.1676C32.6683 13.2033 22.716 17.436 20.5972 18.579C18.4784 19.7214 17.3014 19.7102 15.6275 18.8825C13.9537 18.0553 3.36277 13.6297 1.45491 12.6869C0.501469 12.2152 0 11.8177 0 11.4421V7.67773C0 7.67773 13.7883 4.5733 16.0142 3.7474C18.24 2.92122 19.0124 2.89155 20.9066 3.60922C22.8012 4.32704 34.128 6.44035 36 7.14973L35.9992 10.8606C35.9994 11.2322 35.5674 11.6404 34.5895 12.1676Z" fill="#912626"/>
<path d="M34.5889 8.42619C32.6678 9.46183 22.7157 13.6946 20.5969 14.837C18.4783 15.9794 17.3013 15.9682 15.6275 15.141C13.9538 14.3133 3.36307 9.88801 1.45549 8.94503C-0.45237 8.00219 -0.492167 7.35274 1.38166 6.59361C3.25563 5.83463 13.7883 1.56074 16.0144 0.734558C18.2402 -0.0914785 19.0124 -0.121151 20.9066 0.596667C22.801 1.31449 32.6936 5.38707 34.5655 6.09645C36.4381 6.80569 36.5099 7.39056 34.5889 8.42619Z" fill="#C6302B"/>
<path d="M22.3992 4.76467L19.304 5.09703L18.6112 6.82154L17.4921 4.89718L13.9181 4.56496L16.5849 3.57019L15.7847 2.04321L18.2815 3.05325L20.6353 2.25616L19.9991 3.83507L22.3992 4.76467Z" fill="white"/>
<path d="M18.4264 13.1309L12.6499 10.6528L20.9271 9.33862L18.4264 13.1309Z" fill="white"/>
<path d="M10.4178 5.72314C12.8612 5.72314 14.8419 6.51733 14.8419 7.49682C14.8419 8.4766 12.8612 9.27064 10.4178 9.27064C7.97448 9.27064 5.99377 8.47645 5.99377 7.49682C5.99377 6.51733 7.97448 5.72314 10.4178 5.72314Z" fill="white"/>
<path d="M26.0571 5.23599L30.9559 7.23831L26.0613 9.23875L26.0571 5.23584" fill="#621B1C"/>
<path d="M20.6375 7.45354L26.0571 5.23608L26.0614 9.23885L25.5299 9.45383L20.6375 7.45354Z" fill="#9A2928"/>
</g>
<defs>
<clipPath id="clip0_2_474">
<rect width="36" height="32" fill="white"/>
</clipPath>
</defs>
</svg>

<svg width="36" height="32" fill="none" xmlns="http://www.w3.org/2000/svg"><g clip-path="url(#a)"><path d="M34.59 24.573c-1.922 1.036-11.874 5.269-13.993 6.411-2.119 1.143-3.296 1.132-4.97.304-1.673-.827-12.264-5.252-14.172-6.195C.5 24.62 0 24.223 0 23.847v-3.763s13.788-3.105 16.014-3.931c2.226-.826 2.998-.856 4.893-.138 1.894.718 13.22 2.831 15.093 3.54v3.711c0 .372-.433.78-1.41 1.308z" fill="#912626"/><path d="M34.589 20.832c-1.921 1.035-11.873 5.268-13.992 6.41-2.119 1.143-3.296 1.132-4.97.304-1.673-.827-12.264-5.252-14.172-6.195-1.907-.943-1.947-1.592-.073-2.351 1.874-.76 12.406-5.034 14.632-5.86 2.226-.826 2.998-.856 4.893-.138 1.894.718 11.787 4.79 13.659 5.5 1.872.71 1.944 1.294.023 2.33z" fill="#C6302B"/><path d="M34.59 18.484c-1.922 1.035-11.874 5.268-13.993 6.41-2.119 1.143-3.296 1.132-4.97.305-1.673-.828-12.264-5.253-14.172-6.196C.5 18.53 0 18.133 0 17.758v-3.764s13.788-3.105 16.014-3.93c2.226-.827 2.998-.857 4.893-.14 1.894.719 13.221 2.832 15.093 3.541v3.711c0 .372-.433.78-1.41 1.308z" fill="#912626"/><path d="M34.589 14.742c-1.921 1.036-11.873 5.268-13.992 6.41-2.119 1.143-3.296 1.132-4.97.304-1.673-.826-12.264-5.252-14.172-6.195-1.907-.943-1.947-1.592-.073-2.351 1.874-.76 12.406-5.034 14.632-5.86 2.226-.826 2.998-.856 4.893-.138 1.894.718 11.787 4.79 13.659 5.5 1.872.71 1.944 1.294.023 2.33z" fill="#C6302B"/><path d="M34.59 12.168c-1.922 1.035-11.874 5.268-13.993 6.411-2.119 1.142-3.296 1.131-4.97.303-1.673-.827-12.264-5.252-14.172-6.195C.5 12.215 0 11.817 0 11.442V7.678s13.788-3.105 16.014-3.93c2.226-.827 2.998-.856 4.893-.139C22.8 4.327 34.128 6.44 36 7.15v3.712c0 .371-.433.78-1.41 1.307z" fill="#912626"/><path d="M34.589 8.426c-1.921 1.036-11.873 5.269-13.992 6.411-2.119 1.142-3.296 1.131-4.97.304-1.673-.828-12.264-5.253-14.172-6.196-1.907-.943-1.947-1.592-.073-2.351 1.874-.76 12.406-5.033 14.632-5.86C18.24-.09 19.012-.12 20.907.598c1.894.717 11.787 4.79 13.659 5.5 1.872.709 1.944 1.294.023 2.33z" fill="#C6302B"/><path d="m22.4 4.765-3.096.332-.693 1.725-1.119-1.925-3.574-.332 2.667-.995-.8-1.527 2.497 1.01 2.353-.797L20 3.836l2.4.929zM18.426 13.13l-5.776-2.477 8.277-1.314-2.5 3.792zM10.418 5.723c2.443 0 4.424.794 4.424 1.774s-1.98 1.774-4.424 1.774c-2.444 0-4.424-.795-4.424-1.774 0-.98 1.98-1.774 4.424-1.774z" fill="#fff"/><path d="m26.057 5.236 4.899 2.002-4.895 2-.004-4.002" fill="#621B1C"/><path d="m20.637 7.454 5.42-2.218.004 4.003-.531.215-4.893-2z" fill="#9A2928"/></g><defs><clipPath id="a"><path fill="#fff" d="M0 0h36v32H0z"/></clipPath></defs></svg>
